X: 129020
M: 2/4
L: 1/16
K: D
uA2 !segno!|\
d2(df) edcB | A2(AB) AGFE |\
(DB)AF (DB)AF | G2E2E2 (3(ABc) |\
d2(df) edcB | A2(AB) AGFE |\
uf2 |\
efgf edce | (de)fg a2fa |\
g2eg f2df | edcB A2(cd) |\
efgf edce | (de)fg a2fa |\
g2eg f2df | ea^gb a=gf"_D.C."e |]


